assets/img/icons/push.svg

<svg fill="none" height="25" viewBox="0 0 24 25" width="24" xmlns="http://www.w3.org/2000/svg" xmlns:xlink="http://www.w3.org/1999/xlink"><linearGradient id="a" gradientUnits="userSpaceOnUse" x1="5.375" x2="5.37502" y1="6.53758" y2="11.787"><stop offset="0" stop-color="#4c98ed"/><stop offset="1" stop-color="#e5a7de"/></linearGradient><path clip-rule="evenodd" d="m.999951 3.89551c-.441828 0-.8.35817-.8.8v8.93369c0 .4418.358172.8.8.8h.560599v2.5053c0 .4419.35817.8.8.8h.40507v2.5109c0 .4419.35818.8.8.8h16.86868c.4419 0 .8-.3581.8-.8v-2.5109h.4048c.4418 0 .8-.3581.8-.8v-2.5053h.5609c.4418 0 .7999-.3582.7999-.8v-8.93369c0-.44183-.3581-.8-.7999-.8zm19.839149 10.53369h-17.67855v1.7053h17.67855zm-19.03915-1.6v-7.33369h20.40005v7.33369zm2.56567 6.6162v-1.7109h15.26868v1.7109z" fill="#2e3c47" fill-rule="evenodd"/><path d="m2.9375 6.5376h4.875v5.2494h-4.875z" fill="url(#a)"/><path clip-rule="evenodd" d="m9.35205 9.1623c0-.44182.35817-.8.80005-.8h9.0502c.4419 0 .8.35818.8.8 0 .44183-.3581.8-.8.8h-9.0502c-.44188 0-.80005-.35817-.80005-.8z" fill="#2e3c47" fill-rule="evenodd"/></svg>

<svg width="24" height="25" viewBox="0 0 24 25" fill="none" xmlns="http://www.w3.org/2000/svg">
<path fill-rule="evenodd" clip-rule="evenodd" d="M0.999951 3.89551C0.558123 3.89551 0.199951 4.25368 0.199951 4.69551V13.6292C0.199951 14.071 0.558123 14.4292 0.999951 14.4292H1.56055V16.9345C1.56055 17.3764 1.91872 17.7345 2.36055 17.7345H2.76562V20.2454C2.76562 20.6873 3.1238 21.0454 3.56562 21.0454H20.4343C20.8762 21.0454 21.2343 20.6873 21.2343 20.2454V17.7345H21.6391C22.0809 17.7345 22.4391 17.3764 22.4391 16.9345V14.4292H23C23.4418 14.4292 23.7999 14.071 23.7999 13.6292V4.69551C23.7999 4.25368 23.4418 3.89551 23 3.89551H0.999951ZM20.8391 14.4292H3.16055V16.1345H20.8391V14.4292ZM1.79995 12.8292V5.49551H22.2V12.8292H1.79995ZM4.36562 19.4454V17.7345H19.6343V19.4454H4.36562Z" fill="#2E3C47"/>
<path d="M2.9375 6.5376H7.8125V11.787H2.9375V6.5376Z" fill="url(#paint0_linear_5018_30021)"/>
<path fill-rule="evenodd" clip-rule="evenodd" d="M9.35205 9.1623C9.35205 8.72048 9.71022 8.3623 10.1521 8.3623H19.2023C19.6442 8.3623 20.0023 8.72048 20.0023 9.1623C20.0023 9.60413 19.6442 9.9623 19.2023 9.9623H10.1521C9.71022 9.9623 9.35205 9.60413 9.35205 9.1623Z" fill="#2E3C47"/>
<defs>
<linearGradient id="paint0_linear_5018_30021" x1="5.375" y1="6.53758" x2="5.37502" y2="11.787" gradientUnits="userSpaceOnUse">
<stop stop-color="#4C98ED"/>
<stop offset="1" stop-color="#E5A7DE"/>
</linearGradient>
</defs>
</svg>
